X:1
T: Alexandra Park
C:
R:Reel
I:speed 232
Q:232
K:A
M:4/4
L:1/8
|:e2 cA e2 cA|de fg ba gf|e2 cA e2 cA|BA GA Bc d^d|
e2 cA e2 cA|de fg ba gf|ea gf ed cB|A2 c2 A2 z2|
B2 GE c2 AE|d2 BF e2 cA|fe dc dc BA|GA FG EF GA|
B2 GE c2 AE|d2 BF e2 cA|fe dc dc BA|GA FG EB cd:|
